X: 107203
Q: "Strathspey."
M: C
L: 1/8
K: Ador
(A>G) |\
E<A vA>uB A2 ug>ue | d>BA>G E2D>E |\
E<A A>B A2 G>A | B>AB>d e2g>a |\
b>ag>e (de/f/) g>B | vA>uG E<G A2-A |]
g>ag>b G>AB>G | g/f/g/a/ g<b G>AB>G |\
(3(bag) (3(age) (de/f/) g>B | A>G E<G A2-A |]


